!!!COM: Mozart, Wolfgang Amadeus
!!!CDT: 1756/01/27/-1791/12/05/
!!!CNT: German
!!!OTL: Piano Sonata No. 3 in B-flat major
!!!SCT1: K<sup>1</sup> 281
!!!SCT2: K<sup>6</sup> 189f
!!!OMV: Mvmt. 2
!!!OMD: Andante amoroso
!!!ODT: 1774///
**kern	**dynam	**kern	**dynam
*staff2	*	*staff1	*staff1/2
*>[A,A,B]	*	*>[A,A,B]	*>[A,A,B]
*>norep[A,B]	*	*>norep[A,B]	*>norep[A,B]
*>A	*	*>A	*>A
*clefF4	*	*clefG2	*clefG2
*k[b-e-a-]	*	*k[b-e-a-]	*k[b-e-a-]
*E-:	*	*E-:	*E-:
*M3/8	*	*M3/8	*M3/8
*MM72	*	*MM72	*MM72
=1-	=1-	=1-	=1-
!	!LO:DY:a	!	!
4EE-/ 4E-/	f	8r	.
.	.	8gg\ (8bb-\L	p
8r	.	8ff\ 8aa-\J	.
=2	=2	=2	=2
4.r	.	8ee-\ 8gg\L	<
.	.	8dd\ 8ff\	(
.	.	8cc\ 8ee-\J	(
=3	=3	=3	=3
8r	.	8b-\ 8dd\L	(
8r	.	8a-\ 8cc\	(
8E-\ 8e-\	.	8g\ 8b-\J)	[
=4	=4	=4	=4
*	*	*^	*
8D\ (8d\L	.	[4.b-/	8f\L	f
8C\ 8c\	.	.	8e-\	>
8BB-\ 8B-\J	.	.	[8d\J	.
=5	=5	=5	=5	=5
8AA-\ 8A-\L	.	8b-/L]	8d\L]	.
8GG\ 8G\	.	8cc/	8e-\	.
8FF\ 8F\J)	.	8dd/J	8f\J	.
=6	=6	=6	=6	=6
8EE-/ 8E-/	.	(4ee-/	4g\	p
(8c\L	.	.	.	.
8A-\J)	.	8cc/)	8a-\	.
=7	=7	=7	=7	=7
*^	*	*	*	*
(8B-/L	4.B-\	.	4b-/	4g\	.
8c/	.	.	.	.	.
8d/J)	.	.	(16a-/LL	8f\	.
.	.	.	32g/L	.	.
.	.	.	32a-/JJJ	.	.
*v	*v	*	*	*	*
*	*	*v	*v	*
=8	=8	=8	=8
8e-\	.	8g/	.
8r	.	(8dd\L)	.
8r	.	8ee-\J)	.
=9	=9	=9	=9
8G\ 8B-\ 8e-\	.	8r	.
8r	.	(8bb-\L	.
8r	.	8gg\J)	.
=10	=10	=10	=10
8A-\ 8c\ 8f\	.	16r	.
.	.	(16ff\LL	.
8r	.	16gg\	.
.	.	16aa-\	.
8r	.	16bb-\	.
.	.	16ccc\JJ)	.
=11	=11	=11	=11
8B-\ 8d\ 8f\ 8a-\	.	(16ccc\LL	.
.	.	16bb-\	.
8r	.	16aa-\	.
.	.	16gg\	.
8r	.	16ff\	.
.	.	16dd\JJ)	.
=12	=12	=12	=12
8E-\ 8e-\	.	24ee-/LL	f
.	.	(24b-/	.
.	.	24g/JJ	.
8r	.	24b-/LL	.
.	.	24g/	.
.	.	24e-/JJ	.
8BB-\ 8B-\	.	24d/LL	.
.	.	24f/	.
.	.	24a-/JJ	.
=13	=13	=13	=13
8EE-/ 8E-/L	.	24g/LL	.
.	.	24b-/	.
.	.	24g/JJ	.
8GG/ 8G/	.	24ee-/LL	.
.	.	24b-/	.
.	.	24g/JJ	.
8BB-/ 8B-/J	.	24a-/LL	.
.	.	24f/	.
.	.	24d/JJ	.
=14	=14	=14	=14
8EE-/ 8E-/	.	8e-/)	.
8r	.	8r	.
8E-'\ 8G'\	.	8B-'/ 8e-'/	p
=15	=15	=15	=15
8E-'\ 8G'\	.	8B-'/ 8e-'/	.
8r	.	8r	.
8r	.	8r	.
*clefG2	*	*	*
=16	=16	=16	=16
(16e-/LL	.	([8gg\L	f
16g/	.	.	.
16b-/	.	32gg\LL]	.
.	.	32aa-\	.
16g/	.	32gg\	.
.	.	32ff\JJ	.
16b-/	.	8ee-\J)	.
16g/JJ	.	.	.
=17	=17	=17	=17
16e-/LL	.	8r	.
16g/	.	.	.
.	.	16aanq/	.
16b-/	.	8bb-\L	.
16g/	.	.	.
.	.	16aaq/	.
16e-/	.	8bb-\J	.
16g/JJ	.	.	.
=18	=18	=18	=18
16d/LL	.	([8ff\L	.
16f/	.	.	.
16b-/	.	32ff\LL]	.
.	.	32gg\	.
16f/	.	32ff\	.
.	.	32ee-\JJ	.
16b-/	.	8dd\J)	.
16f/JJ	.	.	.
=19	=19	=19	=19
16d/LL	.	8r	.
16f/	.	.	.
.	.	32aanq/	.
16b-/	.	8bb-\L	.
16f/	.	.	.
.	.	32aaq/	.
16d/	.	8bb-\J	.
16f/JJ	.	.	.
=20	=20	=20	=20
16c/LL	.	(16bb-\LL	p
16e-/	.	16aan\	.
16f/	.	16ccc\	.
16e-/	.	16aa\	.
16An/	.	16ff\	.
16c/JJ	.	16ee-\JJ	.
=21	=21	=21	=21
16B-/LL	.	8dd\)	.
16d/	.	.	.
16f/	.	8r	.
16d/	.	.	.
16f/	.	8bb-\	.
16d/JJ	.	.	.
=22	=22	=22	=22
16c/LL	.	(16bb-\LL	.
16e-/	.	16aan\	.
16f/	.	16ccc\	.
16e-/	.	16aa\	.
16An/	.	16ff\	.
16c/JJ	.	16ee-\JJ	.
=23	=23	=23	=23
16B-/LL	.	8dd\)	.
16d/	.	.	.
16f/	.	8r	.
16d/	.	.	.
16B-/	.	8dd\	f
16d/JJ)	.	.	.
*clefF4	*	*	*
=24	=24	=24	=24
.	.	32bnq/	.
(16E-\LL	.	8cc\	.
16G\	.	.	.
16c\	.	8r	.
16G\	.	.	.
.	.	32ddq/	.
16E-\	.	8ee-\	.
16G\JJ	.	.	.
=25	=25	=25	=25
16c\LL	.	8r	.
16G\	.	.	.
.	.	32ff#q/	.
16E-\	.	8gg\L	.
16G\	.	.	.
16c\	.	(32ffn\LL	.
.	.	32ee-\	.
16E-\JJ)	.	32dd\	.
.	.	32cc\JJJ)	.
=26	=26	=26	=26
*^	*	*	*
(4d/	4.F\	.	(4b-\	.
8c/)	.	.	8an/)	f
*v	*v	*	*	*
=27	=27	=27	=27
8EE-'/ 8E-'/L	.	4.r	.
8DD'/ 8D'/	.	.	.
8CC'/ 8C'/J	.	.	.
=28	=28	=28	=28
8BBB-/ 8BB-/	.	8r	.
(24d\LL	.	(24ff\LL	p
24B-\	.	24dd\	.
24c\JJ	.	24ee-\JJ	.
24d\LL	.	24ff\LL	.
24B-\	.	24dd\	.
24c\JJ	.	24ee-\JJ	.
=29	=29	=29	=29
8d\L	.	8ff\L	.
8e-\J)	.	8gg\J)	.
8c'\	.	8ee-'\	.
=30	=30	=30	=30
8FF/ 8F/	.	8r	.
(24c\LL	.	(24ee-\LL	f
24An\	.	24cc\	.
24B-\JJ	.	24dd\JJ	.
24c\LL	.	24ee-\LL	.
24A\	.	24cc\	.
24B-\JJ	.	24dd\JJ	.
=31	=31	=31	=31
8c\L	.	8ee-\L	.
8d\J)	.	8ff\J)	.
8B-'\	.	8dd'\	.
=32	=32	=32	=32
24D\LL	.	(8b-\L	f
24F\	.	.	.
24B-\JJ	.	.	.
24D\LL	.	8bb-\)	.
24F\	.	.	.
24B-\JJ	.	.	.
24D\LL	.	8bb-'\J	.
24F\	.	.	.
24B-\JJ	.	.	.
=33	=33	=33	=33
24E-\LL	.	(16aan\LL	.
24G\	.	.	.
.	.	16gg\	.
24B-\JJ	.	.	.
24E-\LL	.	16ff\	.
24G\	.	.	.
.	.	16ee-\	.
24B-\JJ	.	.	.
24E-\LL	.	16dd\	.
24G\	.	.	.
.	.	16cc\JJ)	.
24c\JJ	.	.	.
=34	=34	=34	=34
24F\LL	.	4b-\	.
24B-\	.	.	.
24d\JJ	.	.	.
24F\LL	.	.	.
24B-\	.	.	.
24d\JJ	.	.	.
.	.	16anq/LL	.
.	.	16b-q/JJ	.
24F\LL	.	(16cc\LL	.
24c\	.	.	.
.	.	16an\JJ)	.
24e-\JJ	.	.	.
=35	=35	=35	=35
24G\LL	.	8b-\	.
24B-\	.	.	.
24d\JJ	.	.	.
24F\LL	.	8r	.
24B-\	.	.	.
24d\JJ	.	.	.
24E-\LL	.	8r	.
24G\	.	.	.
24c\JJ	.	.	.
=36	=36	=36	=36
24D\LL	.	(8b-\L	p
24F\	.	.	.
24B-\JJ	.	.	.
24D\LL	.	8bb-\)	.
24F\	.	.	.
24B-\JJ	.	.	.
24D\LL	.	8bb-'\J	.
24F\	.	.	.
24B-\JJ	.	.	.
=37	=37	=37	=37
24E-\LL	.	(16aan\LL	.
24G\	.	.	.
.	.	16gg\	.
24B-\JJ	.	.	.
24E-\LL	.	16ff\	.
24G\	.	.	.
.	.	16ee-\	.
24B-\JJ	.	.	.
24E-\LL	.	16dd\	.
24G\	.	.	.
.	.	16cc\JJ)	.
24c\JJ	.	.	.
=38	=38	=38	=38
24F\LL	.	4b-\	.
24B-\	.	.	.
24d\JJ	.	.	.
24F\LL	.	.	.
24B-\	.	.	.
24d\JJ	.	.	.
.	.	16anq/LL	.
.	.	16b-q/JJ	.
24F\LL	.	(16cc\LL	.
24c\	.	.	.
.	.	16an\JJ)	.
24e-\JJ	.	.	.
=39	=39	=39	=39
24F\LL	.	8a-\ (8aa-\L	f
24Bn\	.	.	.
24d\JJ	.	.	.
24E-\LL	.	8g\ 8gg\	.
24G\	.	.	.
24c\JJ	.	.	.
24En\LL	.	8b-\ 8bb-\J)	.
24G\	.	.	.
24d-\JJ	.	.	.
=40	=40	=40	=40
24F\LL	.	4dd\	p
24B-\	.	.	.
24dn\JJ	.	.	.
24F\LL	.	.	.
24B-\	.	.	.
24d\JJ	.	.	.
.	.	16ccq/LL	.
.	.	16ddq/JJ	.
24F\LL	.	(16ee-\LL	.
24An\	.	.	.
.	.	16cc\JJ)	.
24c\JJ	.	.	.
=41	=41	=41	=41
24F\LL	.	8a-\ (8aa-\L	f
24Bn\	.	.	.
24d\JJ	.	.	.
24E-\LL	.	8g\ 8gg\	.
24G\	.	.	.
24c\JJ	.	.	.
24En\LL	.	8b-\ 8bb-\J)	.
24G\	.	.	.
24d-\JJ	.	.	.
=42	=42	=42	=42
24F\LL	.	4dd\	p
24B-\	.	.	.
24dn\JJ	.	.	.
24F\LL	.	.	.
24B-\	.	.	.
24d\JJ	.	.	.
.	.	16ccq/LL	.
.	.	16ddq/JJ	.
24F\LL	.	(16ee-\LL	.
24An\	.	.	.
.	.	16cc\JJ)	.
24e-\JJ	.	.	.
=43	=43	=43	=43
8B-\ 8d\	.	(24b-\LL	f
.	.	24dd\	.
.	.	24ff\JJ	.
8r	.	24bb-\LL	.
.	.	24ff\	.
.	.	24dd\JJ	.
8FF/ 8F/	.	24ee-\LL	.
.	.	24cc\	.
.	.	24an\JJ	.
=44	=44	=44	=44
8BB-/ 8B-/L	.	24b-/LL	.
.	.	24dd/	.
.	.	24f/JJ	.
8DD/ 8D/	.	24b-/LL	.
.	.	24f/	.
.	.	24d/JJ	.
8FF/ 8F/J	.	24e-/LL	.
.	.	24c/	.
.	.	24An/JJ	.
=45	=45	=45	=45
8BBB-/ 8BB-/	.	8B-/)	.
8r	.	8r	.
8BB-'\ 8D'\	.	8F'/ 8B-'/	p
=46	=46	=46	=46
8BB-'\ 8D'\	.	8F'/ 8B-'/	.
8r	.	8r	.
8r	.	8r	.
=47:|!	=47:|!	=47:|!	=47:|!
*>B	*	*>B	*>B
8BB-\ 8B-\	.	24r	.
.	.	(24an/LL	p
.	.	24b-/JJ	.
8r	.	24cc\LL	.
.	.	24a\	.
.	.	24b-\JJ	.
8r	.	24cc\LL	.
.	.	24a\	.
.	.	24b-\JJ)	.
*clefG2	*	*	*
=48	=48	=48	=48
(24B-/LL	.	(4bb-\	f
24d/	.	.	.
24f/JJ	.	.	.
24B-/LL	.	.	.
24e-/	.	.	.
24g/JJ	.	.	.
24B-/LL	.	8dd\	.
24f/	.	.	.
24a-/JJ)	.	.	.
=49	=49	=49	=49
.	.	16ccq/LL	.
.	.	16ddq/JJ	.
8B-/ 8g/	.	24ee-'\LL)	.
.	.	(24an\	p
.	.	24b-\JJ	.
8r	.	24cc\LL	.
.	.	24a\	.
.	.	24b-\JJ	.
8r	.	24cc\LL	.
.	.	24a\	.
.	.	24b-\JJ)	.
=50	=50	=50	=50
(24B-/LL	.	(4bb-\	f
24e-/	.	.	.
24g/JJ	.	.	.
24B-/LL	.	.	.
24f/	.	.	.
24a-/JJ	.	.	.
24B-/LL	.	8een\	.
24g/	.	.	.
24b-/JJ)	.	.	.
=51	=51	=51	=51
.	.	16ddq/LL)	.
.	.	16eeq/JJ	.
8B-/ 8d/ 8a-/	.	24ff'\LL	p
.	.	(24an\	.
.	.	24b-\JJ	.
8r	.	24cc\LL	.
.	.	24a\	.
.	.	24b-\JJ	.
8r	.	24cc\LL	.
.	.	24a\	.
.	.	24b-\JJ)	.
=52	=52	=52	=52
(24B-/LL	.	(4bb-\	f
24f/	.	.	.
24a-/JJ	.	.	.
24B-/LL	.	.	.
24e-/	.	.	.
24g/JJ	.	.	.
24B-/LL	.	8ff\)	.
24d/	.	.	.
24f/JJ)	.	.	.
=53	=53	=53	=53
.	.	16ee-q/LL	.
.	.	16ffq/JJ	.
8An/ 8e-/	.	8r	.
8r	.	(8gg-\L	p
8r	.	8ee-\J)	.
=54	=54	=54	=54
8c-/ 8e-/	.	8r	.
8r	.	(8ee-\L	.
8r	.	8an\J)	.
=55	=55	=55	=55
8B-/ 8d/	.	8r	.
8r	.	(8b-\L	f
8r	.	8dd\J	.
=56	=56	=56	=56
4.r	.	8ff\L	.
.	.	8aan\	.
.	.	8bb-\J)	.
*clefF4	*	*	*
=57	=57	=57	=57
8r	.	8b-\	.
8r	.	8r	.
8BB-\ 8F\	.	8d/ 8a-/	p
=58	=58	=58	=58
8BB-\ 8F\	.	8d/ 8a-/	.
8r	.	8r	.
8r	.	8r	.
=59	=59	=59	=59
*	*	*^	*
8EE-/ 8E-/	.	8r	8r	.
8r	.	24bb-/LL	8gg\L	p
.	.	24ccc/	.	.
.	.	24bb-/JJ	.	.
8r	.	24aa-/LL	8ff\J	.
.	.	24bb-/	.	.
.	.	24aa-/JJ	.	.
=60	=60	=60	=60	=60
4.r	.	24gg/LL	8ee-\L	.
.	.	24aa-/	.	.
.	.	24gg/JJ	.	.
.	.	(24ff/LL	8dd\	.
.	.	24gg/	.	<
.	.	24ff/JJ	.	.
.	.	24ee-/LL	8cc\J	.
.	.	24ff/	.	.
.	.	24ee-/JJ	.	.
=61	=61	=61	=61	=61
8r	.	24dd/LL	8b-\L	.
.	.	24ee-/	.	.
.	.	24dd/JJ	.	.
8r	.	24cc/LL	8a-\	.
.	.	24dd/	.	.
.	.	24cc/JJ	.	.
(24e-\LL	.	[8b-/)	8g\J	.
24f\	.	.	.	.
24e-\JJ	.	.	.	.
=62	=62	=62	=62	=62
24d\LL	.	4.b-/_	8f\L	f
24e-\	.	.	.	.
24d\JJ	.	.	.	.
24c\LL	.	.	8e-\	.
24d\	.	.	.	.
24c\JJ	.	.	.	.
24B-\LL	.	.	[8d\J	>
24c\	.	.	.	.
24B-\JJ	.	.	.	.
=63	=63	=63	=63	=63
24A-\LL	.	8b-/L]	8d\L]	.
24B-\	.	.	.	.
24A-\JJ	.	.	.	.
24G\LL	.	8cc/	8e-\	.
24A-\	.	.	.	.
24G\JJ	.	.	.	.
24F\LL	.	8dd/J	8f\J	.
24G\	.	.	.	.
24F\JJ	.	.	.	.
=64	=64	=64	=64	=64
8E-\L)	.	(24ee-/LL	4g\	p
.	.	24gg/	.	.
.	.	24ff/JJ	.	.
(8c\	.	24ee-/LL	.	.
.	.	24dd/	.	.
.	.	24ee-/JJ	.	.
8A-\J)	.	24cc/LL	8a-\	.
.	.	24dd/	.	.
.	.	24cc/JJ)	.	.
=65	=65	=65	=65	=65
*^	*	*	*	*
(24B-/LL	4.B-\	.	4b-/	4g\	.
24c/	.	.	.	.	.
24B-/JJ	.	.	.	.	.
24c/LL	.	.	.	.	.
24d/	.	.	.	.	.
24c/JJ	.	.	.	.	.
24d/LL	.	.	(16a-/LL	8f\	.
24e-/	.	.	.	.	.
.	.	.	32g/L	.	.
24d/JJ	.	.	.	.	.
.	.	.	32a-/JJJ	.	.
*v	*v	*	*	*	*
*	*	*v	*v	*
=66	=66	=66	=66
8e-\)	.	8g/)	.
8r	.	(8dd\L	.
8r	.	8ee-\J)	.
=67	=67	=67	=67
8G\ 8B-\ 8e-\	.	8r	.
8r	.	(8bb-\L	.
8r	.	8gg\J)	.
=68	=68	=68	=68
8A-\ 8c\ 8f\	.	16r	.
.	.	16ff'\LL	.
8r	.	16gg'\	.
.	.	16aa-'\	.
8r	.	16bb-'\	.
.	.	16ccc'\JJ	.
=69	=69	=69	=69
8B-\ 8d\ 8f\ 8a-\	.	(16ccc\LL	.
.	.	16bb-\	.
8r	.	16aa-\	.
.	.	16gg\	.
8r	.	16ff\	.
.	.	16dd\JJ)	.
=70	=70	=70	=70
8E-\ 8e-\	.	(24ee-\LL	f
.	.	24b-\	.
.	.	24g\JJ	.
8r	.	24b-/LL	.
.	.	24g/	.
.	.	24e-/JJ	.
8BB-\ 8B-\	.	24d/LL	.
.	.	24f/	.
.	.	24a-/JJ	.
=71	=71	=71	=71
8EE-/ 8E-/L	.	24g/LL	.
.	.	24b-/	.
.	.	24g/JJ	.
8GG/ 8G/	.	24ee-\LL	.
.	.	24b-\	.
.	.	24g\JJ	.
8BB-/ 8B-/J	.	24a-/LL	.
.	.	24f/	.
.	.	24d/JJ	.
=72	=72	=72	=72
8EE-/ 8E-/	.	8e-/)	.
8r	.	8r	.
8D-'\ 8G'\	.	8B-'/ 8e-'/	p
=73	=73	=73	=73
8D-'\ 8G'\	.	8B-'/ 8e-'/	.
8r	.	8r	.
8r	.	8r	.
*clefG2	*	*	*
=74	=74	=74	=74
16c/LL	.	([8ee-\L	f
16e-/	.	.	.
16a-/	.	32ee-\LL]	.
.	.	32ff\	.
16e-/	.	32ee-\	.
.	.	32dd-\JJ	.
16a-/	.	8cc\J)	.
16e-/JJ	.	.	.
=75	=75	=75	=75
16c/LL	.	8r	.
16e-/	.	.	.
.	.	32ggq/	.
16a-/	.	8aa-\L	.
16e-/	.	.	.
.	.	32ggq/	.
16c/	.	8aa-\J	.
16e-/JJ	.	.	.
*clefF4	*	*	*
=76	=76	=76	=76
16B-\LL	.	([8gg\L	.
16d-\	.	.	.
16e-\	.	32gg\LL]	.
.	.	32aa-\	.
16d-\	.	32bb-\	.
.	.	32aa-\JJ	.
16e-\	.	8gg\J)	.
16d-\JJ	.	.	.
=77	=77	=77	=77
16G\LL	.	8r	.
16B-\	.	.	.
.	.	32cccq/	.
16e-\	.	8ddd-\L	.
16B-\	.	.	.
.	.	16cccq/	.
16G\	.	8ddd-\J	.
16B-\JJ	.	.	.
=78	=78	=78	=78
16A-\LL	.	([8ccc\L	.
16c\	.	.	.
16e-\	.	32ccc\LL]	.
.	.	32ddd-\	.
16c\	.	32eee-\	.
.	.	32ddd-\JJ	.
16en\	.	8ccc\J)	p
16c\JJ	.	.	.
=79	=79	=79	=79
16f\LL	.	8r	.
16c\	.	.	.
.	.	32eenq/	.
16A-\	.	8ff\L	.
16c\	.	.	.
.	.	32eeq/	.
16F\	.	8ff\J	.
16A-\JJ	.	.	.
=80	=80	=80	=80
16G\LL	.	(16ff\LL	.
16B-\	.	16een\	.
16c\	.	16gg\	.
16B-\	.	16ee\	.
16En\	.	16cc\	.
16G\JJ	.	16b-\JJ	.
=81	=81	=81	=81
16F\LL	.	8a-/)	.
16A-\	.	.	.
16dn\	.	8r	.
16A-\	.	.	.
16G\	.	8ee-\	.
16B-\JJ	.	.	.
=82	=82	=82	=82
16F\LL	.	(16ee-\LL	.
16A-\	.	16dd\	.
16B-\	.	16ff\	.
16A-\	.	16dd\	.
16D\	.	16b-\	.
16F\JJ	.	16a-\JJ	.
=83	=83	=83	=83
16E-\LL	.	8g/)	.
16G\	.	.	.
16B-\	.	8r	.
16e-\	.	.	.
16B-\	.	8gg\	f
16G\JJ	.	.	.
=84	=84	=84	=84
.	.	32eenq/	.
16A-\LL	.	8ff\	.
16c\	.	.	.
16f\	.	8r	.
16c\	.	.	.
.	.	32ggq/	.
16A-\	.	8aa-\	.
16c\JJ	.	.	.
=85	=85	=85	=85
16f\LL	.	8r	.
16c\	.	.	.
.	.	32bbnq/	.
16A-\	.	8ccc\L	.
16c\	.	.	.
16f\	.	(32bb-\LL	.
.	.	32aa-\	.
16A-\JJ	.	32gg\	.
.	.	32ff\JJJ	.
=86	=86	=86	=86
*^	*	*	*
(4g/	4.B-\	.	4ee-\	.
8f/)	.	.	8dd\)	f
*v	*v	*	*	*
=87	=87	=87	=87
8AA-'/ 8A-'/L	.	4.r	.
8GG'/ 8G'/	.	.	.
8FF'/ 8F'/J	.	.	.
=88	=88	=88	=88
8EE-/ 8E-/	.	8r	.
*clefG2	*	*	*
(24g/LL	.	(24bb-\LL	p
24e-/	.	24gg\	.
24f/JJ	.	24aa-\JJ	.
24g/LL	.	24bb-\LL	.
24e-/	.	24gg\	.
24f/JJ	.	24aa-\JJ	.
=89	=89	=89	=89
8g/L	.	8bb-\L	.
8a-/)	.	8ccc\)	.
8f'/J	.	8aa-'\J	f
*clefF4	*	*	*
=90	=90	=90	=90
8BBB-/ 8BB-/	.	8r	.
*clefG2	*	*	*
(24f/LL	.	(24aa-\LL	p
24d/	.	24ff\	.
24e-/JJ	.	24gg\JJ	.
24f/LL	.	24aa-\LL	.
24d/	.	24ff\	.
24e-/JJ	.	24gg\JJ	.
=91	=91	=91	=91
8f/L	.	8aa-\L	.
8g/)	.	8bb-\)	.
8e-'/J	.	8gg'\J	.
=92	=92	=92	=92
24G/LL	.	(8ee-\L	f
24B-/	.	.	.
24e-/JJ	.	.	.
24G/LL	.	8eee-\)	.
24B-/	.	.	.
24e-/JJ	.	.	.
24G/LL	.	8eee-'\J	.
24B-/	.	.	.
24e-/JJ	.	.	.
=93	=93	=93	=93
24A-/LL	.	(16ddd\LL	.
24c/	.	.	.
.	.	16ccc\	.
24e-/JJ	.	.	.
24A-/LL	.	16bb-\	.
24c/	.	.	.
.	.	16aa-\	.
24e-/JJ	.	.	.
24A-/LL	.	16gg\	.
24c/	.	.	.
.	.	16ff\JJ)	.
24f/JJ	.	.	.
=94	=94	=94	=94
24B-/LL	.	4ee-\	.
24e-/	.	.	.
24g/JJ	.	.	.
24B-/LL	.	.	.
24e-/	.	.	.
24g/JJ	.	.	.
.	.	16ddq/LL	.
.	.	16ee-q/JJ	.
24B-/LL	.	16ff\LL	.
24f/	.	.	.
.	.	16dd\JJ	.
24a-/JJ	.	.	.
=95	=95	=95	=95
24c/LL	.	8ee-\	.
24e-/	.	.	.
24g/JJ	.	.	.
24B-/LL	.	8r	.
24e-/	.	.	.
24g/JJ	.	.	.
24A-/LL	.	8r	.
24c/	.	.	.
24f/JJ	.	.	.
*clefF4	*	*	*
=96	=96	=96	=96
24G\LL	.	8b-\	p
24B-\	.	.	.
24e-\JJ	.	.	.
24G\LL	.	(24gg\LL	.
24B-\	.	24dd\	.
24e-\JJ	.	24ee-\JJ)	.
24G\LL	.	(24gg\LL	.
24B-\	.	24dd\	.
24e-\JJ	.	24ee-\JJ)	.
=97	=97	=97	=97
24A-\LL	.	(16dd/LL	.
24c\	.	.	.
.	.	16cc/	.
24e-\JJ	.	.	.
24A-\LL	.	16b-/	.
24c\	.	.	.
.	.	16a-/	.
24e-\JJ	.	.	.
24AA-\LL	.	16g/	.
24C\	.	.	.
.	.	16f/JJ)	.
24F\JJ	.	.	.
=98	=98	=98	=98
24BB-\LL	.	(4e-/	.
24E-\	.	.	.
24G\JJ	.	.	.
24BB-\LL	.	.	.
24E-\	.	.	.
24G\JJ	.	.	.
.	.	16dq/LL	.
.	.	16e-q/JJ	.
24BB-\LL	.	16f/LL	.
24F\	.	.	.
.	.	16d/JJ)	.
24A-\JJ	.	.	.
=99	=99	=99	=99
24GG/LL	.	(8d-/ 8dd-/L	f
24BB-/	.	.	.
24En/JJ	.	.	.
24AA-/LL	.	8c/ 8cc/	.
24C/	.	.	.
24F/JJ	.	.	.
24AAn/LL	.	8e-/) 8ee-/J	.
24C/	.	.	.
24G-/JJ	.	.	.
=100	=100	=100	=100
24BB-\LL	.	4g/	p
24E-\	.	.	.
24Gn\JJ	.	.	.
24BB-\LL	.	.	.
24E-\	.	.	.
24G\JJ	.	.	.
.	.	16fq/LL	.
.	.	16gq/JJ	.
24BB-\LL	.	(16a-/LL	.
24D\	.	.	.
.	.	16f/JJ)	.
24F\JJ	.	.	.
*clefG2	*	*	*
=101	=101	=101	=101
24G/LL	.	8dd-\ (8ddd-\L	f
24B-/	.	.	.
24en/JJ	.	.	.
24A-/LL	.	8cc\ 8ccc\	.
24c/	.	.	.
24f/JJ	.	.	.
24An/LL	.	8ee-\ 8eee-\J)	.
24c/	.	.	.
24g-/JJ	.	.	.
=102	=102	=102	=102
24B-/LL	.	4gg\	p
24e-/	.	.	.
24gn/JJ	.	.	.
24B-/LL	.	.	.
24e-/	.	.	.
24g/JJ	.	.	.
.	.	16ffq/LL	.
.	.	16ggq/JJ	.
24B-/LL	.	(16aa-\LL	.
24d/	.	.	.
.	.	16ff\JJ)	.
24a-/JJ	.	.	.
=103	=103	=103	=103
8e-/ 8g/	.	(24ee-\LL	f
.	.	24gg\	.
.	.	24bb-\JJ	.
8r	.	24eee-\LL	.
.	.	24bb-\	.
.	.	24gg\JJ	.
8g\ 8gg\	.	24aa-\LL	.
.	.	24ff\	.
.	.	24dd\JJ	.
*clefF4	*	*	*
=104	=104	=104	=104
8E-\ 8e-\L	.	24ee-\LL	.
.	.	24gg\	.
.	.	24b-\JJ	.
8GG\ 8G\	.	24ee-\LL	.
.	.	24b-\	.
.	.	24g\JJ	.
8BB-\ 8B-\J	.	24a-/LL	.
.	.	24f/	.
.	.	24d/JJ	.
=105	=105	=105	=105
8EE-/ 8E-/	.	8e-/)	.
8r	.	8r	.
8E-'\ 8G'\	.	8B-'/ 8e-'/	p
=106	=106	=106	=106
8E-'\ 8G'\	.	8B-'/ 8e-'/	.
8r	.	8r	.
8r	.	8r	.
==	==	==	==
*-	*-	*-	*-
!!!SMS: Alte Mozart-Ausgabe, Band 20, Breitkopf &amp; H&auml;rtel 1877-1883.
!!!ONB: Stich und Druck von Breitkopf &amp; H&auml;rtel in Leipzig
!!!ONB: Ausgegeben 1878
!!!ENC: Craig Stuart Sapp
!!!END: 2009/10/02/
!!!title: @{OTL}, K 281 (189f), @{OMV}
!!!hum2abc: --no-tempo -s 0.65 --spacing 2.0 -p "%gracespace  0 6.0 12.0"
!!!ONB: not proof-read
